src/assets/curso/temas/tema2/img_09.svg

<svg height="85" viewBox="0 0 85 85" width="85" xmlns="http://www.w3.org/2000/svg"><path d="m151.03 83.2h-8.166a5.9 5.9 0 1 0 -10.152 0h-8.169a2.273 2.273 0 0 0 0 4.547h-9.089a2.274 2.274 0 0 0 0 4.547h26.487a2.274 2.274 0 0 0 0-4.547h9.089a2.273 2.273 0 1 0 0-4.547z" fill="#d1e7f8" transform="translate(-90.426 -56.872)"/><path d="m251.621 261.028h-32.115c3.345-8.078 5.982-14.448 8.062-19.473 7.227-17.457 7.737-18.688 7.833-18.921a2.224 2.224 0 0 1 4.053 0c.648 1.562-.554-1.34 14.469 34.949a2.492 2.492 0 0 1 -2.302 3.445z" fill="#5eac24" transform="translate(-181.842 -183.291)"/><path d="m312.383 234.178h-13.611l4.779-11.544a2.224 2.224 0 0 1 4.054 0z" fill="#91dc5a" transform="translate(-249.993 -183.291)"/><path d="m235.63 385.063h-16.124c3.345-8.078 5.982-14.448 8.062-19.473 2.08 5.025 4.718 11.395 8.062 19.473z" fill="#4e901e" transform="translate(-181.842 -307.326)"/><path d="m80.286 260.744h-32.115a2.492 2.492 0 0 1 -2.3-3.445l14.469-34.95a2.193 2.193 0 0 1 4.053 0c.038.093.144.347.72 1.74 1.274 3.084 4.865 11.757 15.173 36.655z" fill="#7ed63e" transform="translate(-32.387 -183.007)"/><path d="m113.975 279.718h-26.62a2.492 2.492 0 0 1 -2.3-3.445c9.945-24.023 12.779-30.873 13.745-33.209 1.277 3.084 4.868 11.757 15.175 36.654z" fill="#91dc5a" transform="translate(-66.077 -201.981)"/><path d="m129.761 234.178h-13.611l4.779-11.544a2.224 2.224 0 0 1 4.054 0z" fill="#b6e892" transform="translate(-92.979 -183.291)"/><path d="m206.759 142.4h-26.487a2.28 2.28 0 0 1 -2.272-2.274 2.28 2.28 0 0 1 2.273-2.273h26.487a2.28 2.28 0 0 1 2.273 2.273 2.28 2.28 0 0 1 -2.274 2.274z" fill="#d1e7f8" transform="translate(-146.155 -111.523)"/><path d="m141.939 174.828h-26.487a2.28 2.28 0 0 1 -2.273-2.273 2.28 2.28 0 0 1 2.273-2.273h26.487a2.28 2.28 0 0 1 2.273 2.273 2.28 2.28 0 0 1 -2.273 2.273z" fill="#96c8ef" transform="translate(-90.424 -139.404)"/><path d="m258.378 80.191a5.864 5.864 0 0 1 -.827 3.012h-10.151a5.9 5.9 0 1 1 10.978-3.012z" fill="#eebf00" transform="translate(-205.113 -56.872)"/><path d="m282.566 82.264a5.864 5.864 0 0 1 -.827 3.012h-6.206a5.9 5.9 0 0 1 3.1-8.576 5.9 5.9 0 0 1 3.933 5.564z" fill="#ffd422" transform="translate(-229.301 -58.945)"/><path d="m124.982 222.634.72 1.74c-.524 1.268-1.6 3.862-4.057 9.8h-5.495l4.779-11.544a2.224 2.224 0 0 1 4.053.004z" fill="#a4e276" transform="translate(-92.979 -183.291)"/><path d="m92.827 254.142-9.127-22.053a1.057 1.057 0 0 0 -1.953.809l8.523 20.592h-23.323c-1.75-4.227-3.3-7.977-4.679-11.3 2.33-5.63 4.146-10.014 5.561-13.432h12.2l.1.245a1.057 1.057 0 1 0 1.953-.809c-5.4-13.051-5.189-12.578-5.34-12.819a3.283 3.283 0 0 0 -5.935.661c-.356.86-4.665 11.264-4.669 11.282v.006c-1.289 3.112-2.926 7.07-5.011 12.1l-6.045-14.6c-3.935-9.436-3.857-10.306-5.685-10.86a3.27 3.27 0 0 0 -4.077 1.785c-11.078 26.758-10.686 25.813-15.895 38.394a1.058 1.058 0 0 0 .975 1.457h61.45a1.059 1.059 0 0 0 .977-1.458zm-18.971-38.242a1.089 1.089 0 0 1 1.121.652l4.174 10.083h-10.451c4.149-9.846 4.1-10.735 5.156-10.735zm-26.587.652a1.106 1.106 0 0 1 1.05-.655 1.162 1.162 0 0 1 1.155.906c.194.467 3.833 9.258 4.07 9.832h-10.444c.083-.209 4.163-10.063 4.17-10.078zm-15.29 36.938c4.807-11.612 8.045-19.431 10.24-24.737h12.2c2.9 6.991 7.075 17.09 10.242 24.737z" transform="translate(-18.343 -176.809)"/><path d="m108.974 86.813h26.487a3.333 3.333 0 0 0 3.1-4.547h5.99a3.33 3.33 0 0 0 0-6.661h-6.566a6.945 6.945 0 0 0 .2-3.042 1.057 1.057 0 1 0 -2.088.328 4.87 4.87 0 0 1 -.352 2.714h-8.869a4.846 4.846 0 0 1 7.547-5.668 1.057 1.057 0 1 0 1.359-1.618 6.965 6.965 0 0 0 -11.148 7.286h-6.568a3.333 3.333 0 0 0 -3.1 4.547h-2.706a1.057 1.057 0 0 0 0 2.113h23.2a1.217 1.217 0 0 1 0 2.434h-26.486a1.217 1.217 0 0 1 -.486-2.331 1.057 1.057 0 0 0 -.856-1.932 3.329 3.329 0 0 0 1.342 6.376zm9.089-6.66a1.217 1.217 0 0 1 0-2.434h26.487a1.217 1.217 0 0 1 0 2.434z" transform="translate(-83.946 -50.333)"/><path d="m284.737 7.138a1.056 1.056 0 0 0 1.057-1.057v-5.024a1.057 1.057 0 0 0 -2.113 0v5.025a1.057 1.057 0 0 0 1.056 1.056z" transform="translate(-237.017 7)"/><path d="m231.537 19.249a1.057 1.057 0 0 0 1.83-1.057l-2.513-4.352a1.057 1.057 0 0 0 -1.83 1.057z" transform="translate(-189.904 -4.445)"/><path d="m188.611 54.209c4.5 2.544 4.377 2.654 4.879 2.654a1.058 1.058 0 0 0 .529-1.972l-4.352-2.513a1.057 1.057 0 0 0 -1.057 1.83z" transform="translate(-154.825 -37.912)"/><path d="m173.272 108.464h5.028a1.057 1.057 0 1 0 0-2.113h-5.025a1.057 1.057 0 1 0 0 2.113z" transform="translate(-141.182 -84.438)"/><path d="m354.193 107.407a1.056 1.056 0 0 0 1.057 1.057h5.025a1.057 1.057 0 1 0 0-2.113h-5.025a1.056 1.056 0 0 0 -1.057 1.056z" transform="translate(-297.642 -84.437)"/><path d="m345.822 60.766a1.057 1.057 0 0 0 1.443.387l4.352-2.513a1.057 1.057 0 0 0 -1.057-1.83l-4.352 2.513a1.057 1.057 0 0 0 -.386 1.443z" transform="translate(-290.324 -41.723)"/><path d="m320.4 22.192a1.057 1.057 0 0 0 1.443-.387l2.513-4.352a1.057 1.057 0 0 0 -1.83-1.057l-2.513 4.352a1.056 1.056 0 0 0 .387 1.444z" transform="translate(-268.134 -6.643)"/><path d="m0 0h85v85h-85z" fill="none"/></svg>

<svg xmlns="http://www.w3.org/2000/svg" width="85" height="85" viewBox="0 0 85 85"><g transform="translate(-1335.051 -2477)"><g transform="translate(1316.708 2484)"><path d="M151.03,83.2h-8.166a5.9,5.9,0,1,0-10.152,0h-8.169a2.273,2.273,0,0,0,0,4.547h-9.089a2.274,2.274,0,0,0,0,4.547h26.487a2.274,2.274,0,0,0,0-4.547h9.089a2.273,2.273,0,1,0,0-4.547Z" transform="translate(-72.083 -63.872)" fill="#d1e7f8"/><path d="M251.621,261.028H219.506c3.345-8.078,5.982-14.448,8.062-19.473,7.227-17.457,7.737-18.688,7.833-18.921a2.224,2.224,0,0,1,4.053,0c.648,1.562-.554-1.34,14.469,34.949A2.492,2.492,0,0,1,251.621,261.028Z" transform="translate(-163.499 -190.291)" fill="#5eac24"/><path d="M312.383,234.178H298.772l4.779-11.544a2.224,2.224,0,0,1,4.054,0Z" transform="translate(-231.65 -190.291)" fill="#91dc5a"/><path d="M235.63,385.063H219.506c3.345-8.078,5.982-14.448,8.062-19.473C229.648,370.615,232.286,376.985,235.63,385.063Z" transform="translate(-163.499 -314.326)" fill="#4e901e"/><path d="M80.286,260.744H48.171a2.492,2.492,0,0,1-2.3-3.445l14.469-34.95a2.193,2.193,0,0,1,4.053,0c.038.093.144.347.72,1.74C66.387,227.173,69.978,235.846,80.286,260.744Z" transform="translate(-14.044 -190.007)" fill="#7ed63e"/><path d="M113.975,279.718H87.355a2.492,2.492,0,0,1-2.3-3.445C95,252.25,97.834,245.4,98.8,243.064,100.077,246.148,103.668,254.821,113.975,279.718Z" transform="translate(-47.734 -208.981)" fill="#91dc5a"/><path d="M129.761,234.178H116.15l4.779-11.544a2.224,2.224,0,0,1,4.054,0Z" transform="translate(-74.636 -190.291)" fill="#b6e892"/><path d="M206.759,142.4H180.272A2.28,2.28,0,0,1,178,140.126h0a2.28,2.28,0,0,1,2.273-2.273h26.487a2.28,2.28,0,0,1,2.273,2.273h0A2.28,2.28,0,0,1,206.759,142.4Z" transform="translate(-127.812 -118.523)" fill="#d1e7f8"/><path d="M141.939,174.828H115.452a2.28,2.28,0,0,1-2.273-2.273h0a2.28,2.28,0,0,1,2.273-2.273h26.487a2.28,2.28,0,0,1,2.273,2.273h0A2.28,2.28,0,0,1,141.939,174.828Z" transform="translate(-72.081 -146.404)" fill="#96c8ef"/><path d="M258.378,80.191a5.864,5.864,0,0,1-.827,3.012H247.4a5.9,5.9,0,1,1,10.978-3.012Z" transform="translate(-186.77 -63.872)" fill="#eebf00"/><path d="M282.566,82.264a5.864,5.864,0,0,1-.827,3.012h-6.206a5.9,5.9,0,0,1,3.1-8.576A5.9,5.9,0,0,1,282.566,82.264Z" transform="translate(-210.958 -65.945)" fill="#ffd422"/><path d="M124.982,222.634l.72,1.74c-.524,1.268-1.6,3.862-4.057,9.8H116.15l4.779-11.544A2.224,2.224,0,0,1,124.982,222.634Z" transform="translate(-74.636 -190.291)" fill="#a4e276"/><path d="M92.827,254.142,83.7,232.089a1.057,1.057,0,0,0-1.953.809L90.27,253.49H66.947c-1.75-4.227-3.3-7.977-4.679-11.3,2.33-5.63,4.146-10.014,5.561-13.432h12.2l.1.245a1.057,1.057,0,1,0,1.953-.809c-5.4-13.051-5.189-12.578-5.34-12.819a3.283,3.283,0,0,0-5.935.661c-.356.86-4.665,11.264-4.669,11.282,0,0,0,0,0,.006-1.289,3.112-2.926,7.07-5.011,12.1l-6.045-14.6c-3.935-9.436-3.857-10.306-5.685-10.86a3.27,3.27,0,0,0-4.077,1.785c-11.078,26.758-10.686,25.813-15.895,38.394A1.058,1.058,0,0,0,30.4,255.6H91.85A1.059,1.059,0,0,0,92.827,254.142ZM73.856,215.9a1.089,1.089,0,0,1,1.121.652l4.174,10.083H68.7C72.849,216.789,72.8,215.9,73.856,215.9Zm-26.587.652a1.106,1.106,0,0,1,1.05-.655,1.162,1.162,0,0,1,1.155.906c.194.467,3.833,9.258,4.07,9.832H43.1C43.183,226.426,47.263,216.572,47.27,216.557ZM31.979,253.49c4.807-11.612,8.045-19.431,10.24-24.737h12.2c2.9,6.991,7.075,17.09,10.242,24.737Z" transform="translate(0 -183.809)"/><path d="M108.974,86.813h26.487a3.333,3.333,0,0,0,3.1-4.547h5.99a3.33,3.33,0,0,0,0-6.661h-6.566a6.945,6.945,0,0,0,.2-3.042,1.057,1.057,0,1,0-2.088.328,4.87,4.87,0,0,1-.352,2.714h-8.869a4.846,4.846,0,0,1,7.547-5.668,1.057,1.057,0,1,0,1.359-1.618,6.965,6.965,0,0,0-11.148,7.286h-6.568a3.333,3.333,0,0,0-3.1,4.547h-2.706a1.057,1.057,0,0,0,0,2.113h23.2a1.217,1.217,0,0,1,0,2.434H108.974a1.217,1.217,0,0,1-.486-2.331,1.057,1.057,0,0,0-.856-1.932,3.329,3.329,0,0,0,1.342,6.376Zm9.089-6.66a1.217,1.217,0,0,1,0-2.434H144.55a1.217,1.217,0,0,1,0,2.434Z" transform="translate(-65.603 -57.333)"/><path d="M284.737,7.138a1.056,1.056,0,0,0,1.057-1.057V1.057a1.057,1.057,0,0,0-2.113,0V6.082A1.057,1.057,0,0,0,284.737,7.138Z" transform="translate(-218.674)"/><path d="M231.537,19.249a1.057,1.057,0,0,0,1.83-1.057l-2.513-4.352a1.057,1.057,0,0,0-1.83,1.057Z" transform="translate(-171.561 -11.445)"/><path d="M188.611,54.209c4.5,2.544,4.377,2.654,4.879,2.654a1.058,1.058,0,0,0,.529-1.972l-4.352-2.513a1.057,1.057,0,0,0-1.057,1.83Z" transform="translate(-136.482 -44.912)"/><path d="M173.272,108.464H178.3a1.057,1.057,0,1,0,0-2.113h-5.025a1.057,1.057,0,1,0,0,2.113Z" transform="translate(-122.839 -91.438)"/><path d="M354.193,107.407a1.056,1.056,0,0,0,1.057,1.057h5.025a1.057,1.057,0,1,0,0-2.113H355.25A1.056,1.056,0,0,0,354.193,107.407Z" transform="translate(-279.299 -91.437)"/><path d="M345.822,60.766a1.057,1.057,0,0,0,1.443.387l4.352-2.513a1.057,1.057,0,0,0-1.057-1.83l-4.352,2.513A1.057,1.057,0,0,0,345.822,60.766Z" transform="translate(-271.981 -48.723)"/><path d="M320.4,22.192a1.057,1.057,0,0,0,1.443-.387l2.513-4.352a1.057,1.057,0,0,0-1.83-1.057l-2.513,4.352A1.056,1.056,0,0,0,320.4,22.192Z" transform="translate(-249.791 -13.643)"/></g><rect width="85" height="85" transform="translate(1335.051 2477)" fill="none"/></g></svg>
